packages/ui/public/icons/safety.svg

<svg width="18" height="22" viewBox="0 0 18 22" fill="none" xmlns="http://www.w3.org/2000/svg">
<path d="M8.30201 20.6172C8.5234 20.7463 8.6341 20.8109 8.79032 20.8444C8.91156 20.8704 9.08844 20.8704 9.20968 20.8444C9.3659 20.8109 9.4766 20.7463 9.69799 20.6172C11.646 19.4807 17 15.9108 17 11.0023V6.21991C17 5.4204 17 5.02065 16.8692 4.67702C16.7537 4.37345 16.566 4.10259 16.3223 3.88784C16.0465 3.64475 15.6722 3.50439 14.9236 3.22366L9.5618 1.21299C9.3539 1.13503 9.24995 1.09604 9.14302 1.08059C9.04816 1.06689 8.95184 1.06689 8.85698 1.08059C8.75005 1.09604 8.6461 1.13503 8.4382 1.21299L3.0764 3.22366C2.3278 3.50439 1.9535 3.64475 1.67766 3.88784C1.43398 4.10259 1.24627 4.37345 1.13076 4.67702C1 5.02065 1 5.4204 1 6.21991V11.0023C1 15.9108 6.35396 19.4807 8.30201 20.6172Z" stroke="white" stroke-width="2" stroke-linecap="round" stroke-linejoin="round"/>
</svg>

<svg width="18" height="22" fill="none" xmlns="http://www.w3.org/2000/svg"><path d="M8.302 20.617c.221.13.332.194.488.227.122.026.298.026.42 0 .156-.033.267-.098.488-.227C11.646 19.481 17 15.911 17 11.002V6.22c0-.8 0-1.2-.13-1.543a2 2 0 0 0-.548-.79c-.275-.242-.65-.383-1.398-.663L9.562 1.213c-.208-.078-.312-.117-.419-.132a1 1 0 0 0-.286 0c-.107.015-.21.054-.419.132l-5.362 2.01c-.748.281-1.123.422-1.398.665a2 2 0 0 0-.547.789C1 5.021 1 5.42 1 6.22v4.782c0 4.909 5.354 8.479 7.302 9.615Z" stroke="#fff" stroke-width="2" stroke-linecap="round" stroke-linejoin="round"/></svg>
